X:1
T:11. Home, Sweet Home
T:Henry R. Bishop
T:John Howard Payne
T:11. Home, Sweet Home
C:Henry R. Bishop
Z:John Howard Payne
%%score { ( 1 2 ) | ( 3 4 ) }
L:1/8
M:4/4
K:Eb
V:1 treble nm="Piano" snm="Pno."
V:2 treble 
V:3 bass 
V:4 bass 
V:1
"^John Howard Payne, an American who spent most of his life as a wanderer over Europe, with no settled home, became famous as the author of this best knownand loveliest home-song the world has ever sung.  He was at various times, and actor, translator of plays, and finally U.S. Consul at Tunis, where he died in 1852.The music was probably composed by Henry R. Bishop, although he himself designated it as a \"Sieilian air.\"" E[DF] | %1
w: |
w: 1.~~'Mid _|
w: 2.~~~An _|
 [EG]3- [FA] [FA]2 [Ac]2 | [GB]4 [EG]2 [GB]2 | [FA]3- [EG] [FA]2 [DF]2 | [EG]4 z2 E[DF] | %5
w: ||||
w: pleas- * ures and|pal- a- ces|though _ we may|roam, Be it|
w: ex- * ile from|home, splen- dor|daz- * zles in|vain; Oh, _|
 [EG-]3 [FA] [FA]2 [Ac]2 | [GB]4 [EG]2 [GB]2 | [FA]3- [EG] [FA]2 [DF]2 | E4 z2 [GB]2 | %9
w: ||||
w: ev- * er so|hum- ble, there's|no * place like|home! A|
w: give _ me my|low- ly thatched|cot- * tage a-|gain! The|
 [Ge]3- [Bd] [Ac]2 [GB]2 | [GB]4 [EG]2 [GB]2 | [FA]3- [EG] [FA]2 [DF]2 | [EG]4 z2 [GB]-[GB] | %13
w: ||||
w: charm _ from the|skies seems to|hal- * low us|there, Which, _|
w: birds _ sing- ing|gai- ly that|come _ at my|call; Give me|
 [Ge]3- [Bd] [Ac]2 [GB]2 | [GB]4 [EG]2 [GB]2 | [FA]3 [EG] [FA]2 [DF]2 | E6"^CHORUS." z2 | [GB]8 | %18
w: ||||Home!|
w: seek _ thro' the|world, is ne'er|met _ with else-|where.||
w: them _ with the|peace of mind,|dear- * er than|all.||
 [FA]4- [DF]4 | [CE]4 [DF]4 | [EG]4 z2 [GB]2 | [G-e]3 [Bd] [Ac]2 [GB]2 | [GB]4- [EG]2 [GB]2 | %23
w: home! _|sweet, sweet|home! There's|no _ place like|home, _ there's|
w: |||||
w: |||||
!>(! [FA]3- [EG] [FA]2 [DF]2!>)! | E6 z2 |] %25
w: no _ place like|home.|
w: ||
w: ||
V:2
 E x | x8 | x8 | x8 | x6 E- z | x8 | x8 | x8 | x8 | x8 | x8 | x8 | x8 | x8 | x8 | x8 | x8 | x8 | %18
 x8 | x8 | x8 | x8 | x8 | x8 | x8 |] %25
V:3
 G,A, | [E,B,]4 [E,B,]2 [E,E]2 | [E,E]4 [E,B,]2 [E,B,]2 | [B,,B,]4 [B,,B,]2 [B,,B,]2 | %4
 [E,B,]4 z2 [E,G,][E,A,] | [E,B,]4 [E,B,]2 [E,E]2 | [E,E]4 [E,B,]2 [E,B,]2 | %7
 [B,,B,]4 [B,,B,]2 [B,,A,]2 | [E,G,]4 z2 [E,B,]2 | [E,B,]4 [E,E]2 [E,E]2 | [E,E]4 [E,B,]2 [E,B,]2 | %11
 [B,,B,]4 [B,,B,]2 [B,,B,]2 | [E,B,]4 z2 [E,B,]-[E,B,] | [E,B,]4 [E,E]2 [E,E]2 | %14
 [E,E]4 [E,B,]2 [E,B,]2 | [B,,B,]4 [B,,B,]2 [B,,A,]2 | [E,G,]6 z2 | [E,B,]8 | B,4- A,4 | %19
 [C,G,]4 [B,,B,]4 | [E,B,]4 z2 [E,B,]2 | [E,B,]4 [E,E]2 [E,E]2 | E4 B,2 B,2 | %23
 [B,,B,]4 [B,,B,]2 [B,,A,]2 | [E,G,]6 z2 |] %25
V:4
 E,2 | x8 | x8 | x8 | x8 | x8 | x8 | x8 | x8 | x8 | x8 | x8 | x8 | x8 | x8 | x8 | x8 | x8 | B,,8 | %19
 x8 | x8 | x8 | E,6 E,2 | x8 | x8 |] %25

